tools/download-figma-icons/icons/solid/surface.svg

<svg width="24" height="24" viewBox="0 0 24 24" fill="none" xmlns="http://www.w3.org/2000/svg">
<path fill-rule="evenodd" clip-rule="evenodd" d="M5.25464 2.99995C4.83989 2.99995 4.50465 2.66471 4.50465 2.24997V0.749989C4.50465 0.335245 4.83989 0 5.25464 0C5.66938 0 6.00463 0.335245 6.00463 0.749989V2.24997C6.00463 2.66471 5.66938 2.99995 5.25464 2.99995ZM19.4971 5.24774V18.7475C19.4971 19.1683 19.1596 19.4975 18.7472 19.4975H5.24736C4.82737 19.4975 4.49737 19.1683 4.49737 18.7475V5.24774C4.49737 4.83524 4.82737 4.49775 5.24736 4.49775H18.7472C19.1596 4.49775 19.4971 4.83524 19.4971 5.24774ZM17.9957 2.24997C17.9957 2.66471 18.3309 2.99995 18.7457 2.99995C19.1604 2.99995 19.4956 2.66471 19.4956 2.24997V0.749989C19.4956 0.335245 19.1604 0 18.7457 0C18.3309 0 17.9957 0.335245 17.9957 0.749989V2.24997ZM5.25464 23.9996C4.83989 23.9996 4.50465 23.6644 4.50465 23.2496V21.7497C4.50465 21.3349 4.83989 20.9997 5.25464 20.9997C5.66938 20.9997 6.00463 21.3349 6.00463 21.7497V23.2496C6.00463 23.6644 5.66938 23.9996 5.25464 23.9996ZM17.9957 23.2496C17.9957 23.6644 18.3309 23.9996 18.7457 23.9996C19.1604 23.9996 19.4956 23.6644 19.4956 23.2496V21.7497C19.4956 21.3349 19.1604 20.9997 18.7457 20.9997C18.3309 20.9997 17.9957 21.3349 17.9957 21.7497V23.2496ZM23.25 6.00502H21.75C21.3353 6.00502 21 5.66977 21 5.25503C21 4.84028 21.3353 4.50504 21.75 4.50504H23.25C23.6648 4.50504 24 4.84028 24 5.25503C24 5.66977 23.6648 6.00502 23.25 6.00502ZM21.75 19.4953H23.25C23.6648 19.4953 24 19.16 24 18.7453C24 18.3305 23.6648 17.9953 23.25 17.9953H21.75C21.3353 17.9953 21 18.3305 21 18.7453C21 19.16 21.3353 19.4953 21.75 19.4953ZM2.25033 6.00502H0.750355C0.335611 6.00502 0.000366205 5.66977 0.000366205 5.25503C0.000366205 4.84028 0.335611 4.50504 0.750355 4.50504H2.25033C2.66508 4.50504 3.00032 4.84028 3.00032 5.25503C3.00032 5.66977 2.66508 6.00502 2.25033 6.00502ZM0.750355 19.4953H2.25033C2.66508 19.4953 3.00032 19.16 3.00032 18.7453C3.00032 18.3305 2.66508 17.9953 2.25033 17.9953H0.750355C0.335611 17.9953 0.000366205 18.3305 0.000366205 18.7453C0.000366205 19.16 0.335611 19.4953 0.750355 19.4953Z" fill="black"/>
</svg>

<svg width="24" height="24" viewBox="0 0 24 24" fill="none" xmlns="http://www.w3.org/2000/svg"><path fill-rule="evenodd" clip-rule="evenodd" d="M5.255 3a.75.75 0 0 1-.75-.75V.75a.75.75 0 1 1 1.5 0v1.5a.75.75 0 0 1-.75.75Zm14.242 2.248v13.5c0 .42-.337.75-.75.75h-13.5c-.42 0-.75-.33-.75-.75v-13.5c0-.413.33-.75.75-.75h13.5c.413 0 .75.337.75.75ZM17.996 2.25a.75.75 0 1 0 1.5 0V.75a.75.75 0 1 0-1.5 0v1.5ZM5.255 24a.75.75 0 0 1-.75-.75v-1.5a.75.75 0 1 1 1.5 0v1.5a.75.75 0 0 1-.75.75Zm12.74-.75a.75.75 0 1 0 1.5 0v-1.5a.75.75 0 1 0-1.5 0v1.5ZM23.25 6.005h-1.5a.75.75 0 1 1 0-1.5h1.5a.75.75 0 1 1 0 1.5Zm-1.5 13.49h1.5a.75.75 0 1 0 0-1.5h-1.5a.75.75 0 1 0 0 1.5ZM2.25 6.005H.75a.75.75 0 1 1 0-1.5h1.5a.75.75 0 1 1 0 1.5Zm-1.5 13.49h1.5a.75.75 0 1 0 0-1.5H.75a.75.75 0 1 0 0 1.5Z" fill="currentColor"/></svg>
